flaticon/hand-gestures/tap-12.svg

<svg xmlns="http://www.w3.org/2000/svg" width="32" height="32" viewBox="0 0 24 24">
    <path d="M 7.171875 8.121094 C 7.289062 8.042969 7.371094 7.882812 7.332031 7.722656 L 6.890625 5.246094 L 8.769531 3.484375 C 8.890625 3.40625 8.929688 3.246094 8.890625 3.085938 C 8.847656 2.925781 8.730469 2.847656 8.570312 2.804688 L 6.011719 2.445312 L 4.773438 0.207031 C 4.691406 0.0859375 4.570312 0.0078125 4.414062 0.0078125 C 4.253906 0.0078125 4.132812 0.0859375 4.050781 0.246094 L 2.972656 2.445312 L 0.375 2.804688 C 0.214844 2.84375 0.0546875 2.925781 0.015625 3.085938 C -0.0234375 3.246094 0.015625 3.40625 0.136719 3.484375 L 2.015625 5.246094 L 1.574219 7.722656 C 1.535156 7.882812 1.613281 8.042969 1.734375 8.121094 C 1.8125 8.164062 1.894531 8.203125 1.972656 8.203125 C 2.015625 8.203125 2.09375 8.203125 2.132812 8.164062 L 4.453125 6.964844 L 6.769531 8.164062 C 6.890625 8.242188 7.050781 8.203125 7.171875 8.121094 Z M 4.691406 6.164062 C 4.613281 6.125 4.570312 6.125 4.492188 6.125 C 4.414062 6.125 4.332031 6.164062 4.332031 6.164062 L 2.535156 7.082031 L 2.851562 5.164062 C 2.894531 5.042969 2.8125 4.882812 2.734375 4.804688 L 1.292969 3.484375 L 3.292969 3.207031 C 3.414062 3.207031 3.53125 3.125 3.574219 3.003906 L 4.414062 1.285156 L 5.410156 3.003906 C 5.453125 3.125 5.570312 3.207031 5.691406 3.207031 L 7.730469 3.484375 L 6.292969 4.804688 C 6.210938 4.882812 6.132812 5.042969 6.171875 5.164062 L 6.492188 7.082031 Z M 4.691406 6.164062"/>
    <path d="M 22 8.402344 C 21.5625 8.402344 21.121094 8.5625 20.800781 8.800781 L 20.800781 8.402344 C 20.800781 7.28125 19.921875 6.402344 18.804688 6.402344 C 18.363281 6.402344 17.921875 6.5625 17.605469 6.804688 C 17.605469 5.683594 16.722656 4.804688 15.605469 4.804688 C 15.164062 4.804688 14.726562 4.964844 14.40625 5.203125 L 14.40625 2.007812 C 14.40625 0.886719 13.527344 0.0078125 12.40625 0.0078125 C 11.289062 0.0078125 10.410156 0.886719 10.410156 2.007812 L 10.410156 11.082031 C 9.527344 9.5625 7.492188 8.800781 5.929688 9.363281 C 5.730469 9.402344 5.570312 9.523438 5.371094 9.640625 C 4.773438 10.042969 4.8125 10.5625 4.8125 10.722656 C 4.773438 10.960938 4.8125 11 5.371094 11.640625 C 6.050781 12.441406 7.53125 14.117188 8.449219 15.796875 C 8.53125 15.878906 9.609375 17.636719 10.808594 18.957031 L 10.808594 19.996094 C 10.808594 22.195312 12.605469 23.992188 14.804688 23.992188 L 18.804688 23.992188 C 20.523438 23.992188 22.320312 22.554688 22.722656 20.875 C 22.839844 20.394531 22.960938 20.035156 23.121094 19.875 C 23.519531 19.394531 24 18.277344 24 16.796875 L 24 10.402344 C 24 9.28125 23.121094 8.402344 22 8.402344 Z M 18.84375 23.191406 L 14.847656 23.191406 C 13.085938 23.191406 11.648438 21.753906 11.648438 19.996094 L 11.648438 19.632812 C 11.726562 19.691406 11.804688 19.742188 11.886719 19.796875 C 12.128906 19.996094 12.328125 20.113281 12.566406 20.316406 C 12.726562 20.476562 13.046875 20.355469 13.085938 20.234375 C 13.246094 20.074219 13.207031 19.835938 13.046875 19.675781 C 12.808594 19.433594 12.566406 19.273438 12.328125 19.117188 C 12.050781 18.917969 11.773438 18.71875 11.496094 18.484375 C 10.308594 17.242188 9.167969 15.398438 9.167969 15.398438 C 8.210938 13.679688 6.691406 11.960938 5.972656 11.121094 C 5.851562 10.960938 5.691406 10.761719 5.613281 10.679688 C 5.613281 10.5625 5.613281 10.480469 5.890625 10.320312 C 6.050781 10.242188 6.171875 10.160156 6.289062 10.121094 C 7.332031 9.761719 9.050781 10.242188 9.808594 11.558594 L 10.425781 12.488281 C 10.433594 12.511719 10.4375 12.535156 10.449219 12.558594 L 10.847656 13.359375 C 10.929688 13.519531 11.328125 13.597656 11.367188 13.519531 C 11.527344 13.4375 11.609375 13.199219 11.527344 13 L 11.246094 12.433594 C 11.246094 12.421875 11.246094 12.410156 11.246094 12.398438 L 11.246094 2.007812 C 11.246094 1.328125 11.765625 0.808594 12.445312 0.808594 C 13.125 0.808594 13.644531 1.328125 13.644531 2.007812 L 13.644531 13.199219 C 13.644531 13.4375 13.804688 13.597656 14.046875 13.597656 C 14.285156 13.597656 14.445312 13.4375 14.445312 13.199219 L 14.445312 6.804688 C 14.445312 6.125 14.964844 5.605469 15.644531 5.605469 C 16.324219 5.605469 16.84375 6.125 16.84375 6.804688 L 16.84375 12.800781 C 16.84375 13.039062 17.003906 13.199219 17.242188 13.199219 C 17.484375 13.199219 17.644531 13.039062 17.644531 12.800781 L 17.644531 8.402344 C 17.644531 7.722656 18.164062 7.203125 18.84375 7.203125 C 19.523438 7.203125 20.042969 7.722656 20.042969 8.402344 L 20.042969 13.199219 C 20.042969 13.4375 20.203125 13.597656 20.441406 13.597656 C 20.683594 13.597656 20.839844 13.4375 20.839844 13.199219 L 20.839844 10.402344 C 20.839844 9.722656 21.363281 9.203125 22.039062 9.203125 C 22.71875 9.203125 23.238281 9.722656 23.238281 10.402344 L 23.238281 16.796875 C 23.238281 17.539062 23.097656 18.140625 22.925781 18.578125 C 22.890625 18.617188 22.863281 18.664062 22.839844 18.714844 C 22.679688 19.234375 22.199219 19.355469 21.320312 19.59375 L 21.082031 19.636719 C 20.882812 19.675781 20.761719 19.914062 20.800781 20.113281 C 20.882812 20.273438 21.042969 20.394531 21.203125 20.394531 C 21.242188 20.394531 21.28125 20.394531 21.320312 20.394531 L 21.519531 20.394531 C 21.703125 20.34375 21.886719 20.296875 22.066406 20.242188 C 22.027344 20.378906 21.992188 20.523438 21.960938 20.675781 C 21.679688 22.035156 20.203125 23.191406 18.84375 23.191406 Z M 18.84375 23.191406"/>
</svg>

<svg xmlns="http://www.w3.org/2000/svg" width="32" height="32" viewBox="0 0 24 24">
    <path d="M7.172 8.121a.383.383 0 0 0 .16-.398l-.441-2.477L8.77 3.484c.12-.078.16-.238.12-.398-.042-.16-.16-.238-.32-.281l-2.558-.36L4.773.207a.423.423 0 0 0-.359-.2c-.16 0-.281.079-.363.24L2.973 2.444l-2.598.36c-.16.039-.32.12-.36.28-.038.161 0 .321.122.4l1.879 1.761-.442 2.477c-.039.16.04.32.16.398.079.043.16.082.239.082.043 0 .12 0 .16-.039l2.32-1.2 2.317 1.2c.12.078.28.04.402-.043zm-2.48-1.957c-.079-.039-.122-.039-.2-.039-.078 0-.16.04-.16.04l-1.797.917.317-1.918c.043-.121-.04-.281-.118-.36l-1.441-1.32 2-.277a.306.306 0 0 0 .281-.203l.84-1.719.996 1.719c.043.121.16.203.281.203l2.04.277-1.438 1.32c-.082.079-.16.239-.121.36l.32 1.918zm0 0"/>
    <path d="M22 8.402c-.438 0-.879.16-1.2.399v-.399c0-1.12-.878-2-1.995-2-.442 0-.883.16-1.2.403 0-1.121-.882-2-2-2-.44 0-.878.16-1.199.398V2.008c0-1.121-.879-2-2-2a1.978 1.978 0 0 0-1.996 2v9.074c-.883-1.52-2.918-2.281-4.48-1.719-.2.04-.36.16-.559.278-.598.402-.559.921-.559 1.082-.039.238 0 .277.56.918.679.8 2.16 2.476 3.077 4.156.082.082 1.16 1.84 2.36 3.16v1.04c0 2.198 1.796 3.995 3.996 3.995h4c1.718 0 3.515-1.437 3.918-3.117.117-.48.238-.84.398-1 .399-.48.879-1.598.879-3.078v-6.395c0-1.12-.879-2-2-2zm-3.156 14.79h-3.996a3.205 3.205 0 0 1-3.2-3.196v-.363c.079.058.157.11.239.164.242.2.441.316.68.52.16.16.48.038.519-.083.16-.16.121-.398-.04-.558a4.076 4.076 0 0 0-.718-.559 13.02 13.02 0 0 1-.832-.633c-1.187-1.242-2.328-3.086-2.328-3.086-.957-1.718-2.477-3.437-3.195-4.277a6.661 6.661 0 0 0-.36-.441c0-.117 0-.2.278-.36.16-.078.28-.16.398-.199 1.043-.36 2.762.121 3.52 1.438l.617.93c.008.023.011.046.023.07l.399.8c.082.16.48.239.52.16.16-.082.241-.32.16-.519l-.282-.566V2.008c0-.68.52-1.2 1.2-1.2.679 0 1.199.52 1.199 1.2v11.191c0 .239.16.399.402.399.238 0 .398-.16.398-.399V6.805c0-.68.52-1.2 1.2-1.2.68 0 1.199.52 1.199 1.2V12.8c0 .238.16.398.398.398.242 0 .403-.16.403-.398V8.402c0-.68.52-1.199 1.199-1.199.68 0 1.199.52 1.199 1.2v4.796c0 .239.16.399.398.399.243 0 .399-.16.399-.399v-2.797c0-.68.523-1.199 1.2-1.199.679 0 1.198.52 1.198 1.2v6.394c0 .742-.14 1.344-.312 1.781a.54.54 0 0 0-.086.137c-.16.52-.64.64-1.52.879l-.238.043c-.2.039-.32.277-.281.476.082.16.242.282.402.282h.317c.183-.051.367-.098.546-.153-.039.137-.074.281-.105.434-.281 1.36-1.758 2.515-3.117 2.515zm0 0"/>
</svg>
